!!!OTL: Graf Friedrich Es wollt ein Koenig ausreiten
!!!ARE: Europa, Suedosteuropa, Rumaenien, Siebenbuergen, Schoenbirk
!!!ARD1: Europa%Suedosteuropa%Rumaenien@Siebenbuergen#Schoenbirk#?
!!!ARL1: ? / ?
!!!ARD2: Europa%Suedosteuropa%Romania@Siebenbuergen#
!!!ARL2: 46.50/25.00#
!!!YOR: 2, S. 197
!!    1925 aufgezeichnet
!!!SCT: Q0048
!!!YEM: Copyright 1995, estate of Helmut Schaffrath.
**kern
*ICvox
*Ivox
*M3/4
*k[b-]
*d:
{8d
=1
8d
8d
8a
8g
4a
=2
8g
8fn
4e
8r}
{8d
=3
8fn
8e
4d
4a
=4
8g
8fn
4fn}
{8fn
8e
=5
4d
4a
8d
8fn
=6
8fn
8e
8d}
{8d
8d
8e
=7
4fn
4d
8fn
8e
=8
4d
8r
8a
12g
12fn
12e
=9
4d
4.r}
==
!!!AGN: Ballade, Hochzeit, Mord / Unfall, Tod
!! Anhaengsel in der letzten Zeile.
!!!ONB: ESAC (Essen Associative Code) Database: BALLADE
!!!AMT: simple triple
!!!AIN: vox
!!!EED: Helmut Schaffrath
!!!EEV: 1.0
*-
